qml/images/settings.svg

<?xml version="1.0" encoding="UTF-8" standalone="no"?>
<svg
   xmlns:dc="http://purl.org/dc/elements/1.1/"
   xmlns:cc="http://creativecommons.org/ns#"
   xmlns:rdf="http://www.w3.org/1999/02/22-rdf-syntax-ns#"
   xmlns:svg="http://www.w3.org/2000/svg"
   xmlns="http://www.w3.org/2000/svg"
   xmlns:sodipodi="http://sodipodi.sourceforge.net/DTD/sodipodi-0.dtd"
   xmlns:inkscape="http://www.inkscape.org/namespaces/inkscape"
   width="16"
   height="16"
   version="1.1"
   id="svg209"
   sodipodi:docname="settings.svg"
   inkscape:version="1.0.2-2 (e86c870879, 2021-01-15)">
  <metadata
     id="metadata215">
    <rdf:RDF>
      <cc:Work
         rdf:about="">
        <dc:format>image/svg+xml</dc:format>
        <dc:type
           rdf:resource="http://purl.org/dc/dcmitype/StillImage" />
      </cc:Work>
    </rdf:RDF>
  </metadata>
  <defs
     id="defs213" />
  <sodipodi:namedview
     pagecolor="#ffffff"
     bordercolor="#666666"
     borderopacity="1"
     objecttolerance="10"
     gridtolerance="10"
     guidetolerance="10"
     inkscape:pageopacity="0"
     inkscape:pageshadow="2"
     inkscape:window-width="1920"
     inkscape:window-height="1017"
     id="namedview211"
     showgrid="false"
     inkscape:zoom="53.125"
     inkscape:cx="8"
     inkscape:cy="8"
     inkscape:window-x="-8"
     inkscape:window-y="-8"
     inkscape:window-maximized="1"
     inkscape:current-layer="svg209" />
  <path
     style="color:#000000;font-style:normal;font-variant:normal;font-weight:normal;font-stretch:normal;font-size:medium;line-height:normal;font-family:sans-serif;font-variant-ligatures:normal;font-variant-position:normal;font-variant-caps:normal;font-variant-numeric:normal;font-variant-alternates:normal;font-variant-east-asian:normal;font-feature-settings:normal;font-variation-settings:normal;text-indent:0;text-align:start;text-decoration:none;text-decoration-line:none;text-decoration-style:solid;text-decoration-color:#000000;letter-spacing:normal;word-spacing:normal;text-transform:none;writing-mode:lr-tb;direction:ltr;text-orientation:mixed;dominant-baseline:auto;baseline-shift:baseline;text-anchor:start;white-space:normal;shape-padding:0;shape-margin:0;inline-size:0;clip-rule:nonzero;display:inline;overflow:visible;visibility:visible;isolation:auto;mix-blend-mode:normal;color-interpolation:sRGB;color-interpolation-filters:linearRGB;solid-color:#000000;solid-opacity:1;vector-effect:none;fill:#474747;fill-opacity:1;fill-rule:nonzero;stroke-width:1;stroke-linecap:butt;stroke-linejoin:miter;stroke-miterlimit:4;stroke-dasharray:none;stroke-dashoffset:0;stroke-opacity:1;marker:none;color-rendering:auto;image-rendering:auto;shape-rendering:auto;text-rendering:auto;enable-background:accumulate;stop-color:#000000;stop-opacity:1;stroke:none;opacity:1"
     d="M 8,1 C 7.78,1 7.56,1.011 7.344,1.031 L 6.938,3.125 C 6.605248,3.1958431 6.2805737,3.3003822 5.969,3.437 L 4.438,1.97 C 4.049,2.2 3.711,2.484 3.375,2.782 L 4.281,4.688 C 4.0567948,4.9386103 3.8581449,5.2109583 3.688,5.501 L 1.594,5.22 C 1.4174314,5.6324737 1.2814562,6.0611641 1.188,6.5 l 1.843,1 c -0.018648,0.166035 -0.028662,0.3329264 -0.03,0.5 0,0.173 0.013,0.332 0.03,0.5 l -1.843,1 c 0.097,0.445 0.228,0.872 0.406,1.281 L 3.688,10.5 c 0.17,0.29 0.371,0.563 0.593,0.812 l -0.906,1.907 c 0.336,0.298 0.674,0.582 1.063,0.812 l 1.531,-1.469 c 0.306,0.137 0.634,0.24 0.969,0.313 l 0.406,2.094 c 0.4364007,0.04039 0.8755993,0.04039 1.312,0 l 0.407,-2.094 c 0.334,-0.073 0.663,-0.176 0.968,-0.313 l 1.532,1.47 c 0.388,-0.23 0.727,-0.515 1.062,-0.813 l -0.906,-1.907 c 0.224228,-0.250469 0.423192,-0.522453 0.594,-0.812 l 2.093,0.281 C 14.582972,10.368241 14.719283,9.9392114 14.813,9.5 l -1.844,-1 C 12.986,8.332 13,8.173 13,8 13,7.827 12.986,7.668 12.969,7.5 l 1.844,-1 C 14.719296,6.0607853 14.582984,5.631755 14.406,5.219 L 12.313,5.5 C 12.142539,5.2099142 11.943553,4.9375646 11.719,4.687 L 12.625,2.781 C 12.29,2.483 11.951,2.199 11.563,1.969 L 10.03,3.437 C 9.7187398,3.3004659 9.3944058,3.1959285 9.062,3.125 L 8.655,1.031 C 8.4372588,1.01061 8.2186936,1.0002657 8,1 Z m 0,4 c 3.999998,0 3.999998,6 0,6 C 4.0000017,11 4.0000017,5 8,5 Z"
     id="path207" />
</svg>

<svg xmlns="http://www.w3.org/2000/svg" width="16" height="16"><path d="M8 1c-.22 0-.44.011-.656.031l-.406 2.094a5.012 5.012 0 00-.969.312L4.438 1.97c-.389.23-.727.514-1.063.812l.906 1.906a5.057 5.057 0 00-.593.813L1.594 5.22a6.91 6.91 0 00-.406 1.28l1.843 1a4.826 4.826 0 00-.03.5c0 .173.013.332.03.5l-1.843 1c.097.445.228.872.406 1.281l2.094-.281c.17.29.371.563.593.812l-.906 1.907c.336.298.674.582 1.063.812l1.531-1.469c.306.137.634.24.969.313l.406 2.094a7.118 7.118 0 001.312 0l.407-2.094c.334-.073.663-.176.968-.313l1.532 1.47c.388-.23.727-.515 1.062-.813l-.906-1.907a5.11 5.11 0 00.594-.812l2.093.281a6.91 6.91 0 00.407-1.281l-1.844-1c.017-.168.031-.327.031-.5s-.014-.332-.031-.5l1.844-1a6.908 6.908 0 00-.407-1.281l-2.093.281a5.057 5.057 0 00-.594-.813l.906-1.906c-.335-.298-.674-.582-1.062-.812L10.03 3.437a5.015 5.015 0 00-.968-.312l-.407-2.094A7.118 7.118 0 008 1zm0 4a3 3 0 110 6 3 3 0 010-6z" style="marker:none" color="#000" overflow="visible" fill="#474747"/></svg>
